X: 2246
T: B' Fheàrr Mar A Bha Mi 'n Uiridh
R: reel
M: 4/4
K: Amajor
AEAB ceef|eA~A2 ~f2 ec|~A3 B ce~e2|1 fB~B2 c2 Bc:|2 fB~B2 c2 BA||
c3 d ec~c2|ac~c2 ec~c2|~A3 B ce~e2|fB~B2 c2 BA|c3 d ec~c2|ac~c2 ec~c2|AEAB ce~e2|fB~B2 c2 Bc||

